assets/ai/ai-datacite-square.svg

<svg xmlns="http://www.w3.org/2000/svg" width="100%" height="100%" viewBox="-75.52 -43.52 599.04 599.04"><path d="M 48 32 C 21.5 32 0 53.5 0 80 L 0 432 C 0 458.5 21.5 480 48 480 L 400 480 C 426.5 480 448 458.5 448 432 L 448 80 C 448 53.5 426.5 32 400 32 L 48 32 z M 200.96289 96.009766 C 217.91862 96.321421 238.04267 103.88028 261.21875 120.89844 C 211.06566 98.021586 185.05422 123.22306 177.86719 165.14062 C 178.35416 165.13793 178.84115 165.11914 179.32812 165.11914 C 321.82029 160.20562 443.55664 200.60828 421.71875 257.38672 C 405.36866 298.74273 324.0549 328.96045 230.31836 341.02734 C 266.09354 380.69713 312.31908 392.194 338.19531 335.99414 C 339.83318 335.44817 340.92276 335.45226 341.46875 334.90625 C 320.95914 459.74751 229.10408 421.806 179.15625 345.71875 C 128.5757 348.51627 77.159914 345.99916 32.464844 337.09375 C 29.189164 336.54777 26.462162 335.99714 23.732422 335.45117 C 69.962242 335.68583 119.68235 329.43335 163.78125 318.1875 C 159.52551 309.06574 155.90315 299.67354 153.11719 290.14258 C 117.71595 203.98532 134.63339 98.501571 197.61523 96.044922 L 197.61523 96.042969 C 198.71742 95.999977 199.83251 95.988989 200.96289 96.009766 z M 177.66406 166.44141 C 171.87319 202.41104 179.65549 250.24216 197.88086 290.6875 C 200.16779 295.74872 202.67482 300.651 205.30273 305.43359 C 244.48806 291.08161 275.11015 272.25163 287.96289 250.28516 C 314.47172 204.69 250.85849 175.11529 177.66406 166.44141 z"/></svg>

<svg xmlns="http://www.w3.org/2000/svg" width="100%" height="100%" viewBox="-75.52 -43.52 599.04 599.04"><path d="M48 32C21.5 32 0 53.5 0 80v352c0 26.5 21.5 48 48 48h352c26.5 0 48-21.5 48-48V80c0-26.5-21.5-48-48-48H48zm152.963 64.01c16.956.311 37.08 7.87 60.256 24.888-50.153-22.876-76.165 2.325-83.352 44.243.487-.003.974-.022 1.461-.022 142.492-4.913 264.229 35.49 242.39 92.268-16.35 41.356-97.663 71.573-191.4 83.64 35.776 39.67 82.001 51.167 107.877-5.033 1.638-.546 2.728-.542 3.274-1.088-20.51 124.842-112.365 86.9-162.313 10.813-50.58 2.797-101.996.28-146.691-8.625-3.276-.546-6.003-1.097-8.733-1.643 46.23.235 95.95-6.018 140.05-17.264-4.256-9.121-7.879-18.513-10.665-28.044-35.401-86.158-18.484-191.641 44.498-194.098v-.002a58.343 58.343 0 013.348-.033zm-23.299 70.431c-5.79 35.97 1.991 83.801 20.217 124.246 2.287 5.062 4.794 9.964 7.422 14.747 39.185-14.352 69.807-33.182 82.66-55.149 26.509-45.595-37.105-75.17-110.299-83.844z"/></svg>
